material/.icons/material/tab-unselected.svg

<svg xmlns="http://www.w3.org/2000/svg" viewBox="0 0 24 24"><path d="M1 9h2V7H1v2m0 4h2v-2H1v2m0-8h2V3a2 2 0 00-2 2m8 16h2v-2H9v2m-8-4h2v-2H1v2m2 4v-2H1a2 2 0 002 2M21 3h-8v6h10V5a2 2 0 00-2-2m0 14h2v-2h-2v2M9 5h2V3H9v2M5 21h2v-2H5v2M5 5h2V3H5v2m16 16a2 2 0 002-2h-2v2m0-8h2v-2h-2v2m-8 8h2v-2h-2v2m4 0h2v-2h-2v2z"/></svg>

<?xml version="1.0" encoding="UTF-8"?><!DOCTYPE svg PUBLIC "-//W3C//DTD SVG 1.1//EN" "http://www.w3.org/Graphics/SVG/1.1/DTD/svg11.dtd"><svg xmlns="http://www.w3.org/2000/svg" xmlns:xlink="http://www.w3.org/1999/xlink" version="1.1" id="mdi-tab-unselected" width="24" height="24" viewBox="0 0 24 24"><path d="M1,9H3V7H1V9M1,13H3V11H1V13M1,5H3V3A2,2 0 0,0 1,5M9,21H11V19H9V21M1,17H3V15H1V17M3,21V19H1A2,2 0 0,0 3,21M21,3H13V9H23V5A2,2 0 0,0 21,3M21,17H23V15H21V17M9,5H11V3H9V5M5,21H7V19H5V21M5,5H7V3H5V5M21,21A2,2 0 0,0 23,19H21V21M21,13H23V11H21V13M13,21H15V19H13V21M17,21H19V19H17V21Z" /></svg>
